src/components/icons/customers/logos/wework.svg

<?xml version="1.0" encoding="UTF-8"?>
<svg width="160px" height="72px" viewBox="0 0 160 72" version="1.1" xmlns="http://www.w3.org/2000/svg" xmlns:xlink="http://www.w3.org/1999/xlink">
    <!-- Generator: Sketch 52.1 (67048) - http://www.bohemiancoding.com/sketch -->
    <title>customer/wework</title>
    <desc>Created with Sketch.</desc>
    <g id="customer/wework" stroke="none" stroke-width="1" fill="none" fill-rule="evenodd">
        <g id="Group" transform="translate(0.000000, 19.000000)" fill="#7B7194">
            <path d="M13.517677,16.4 C14.500843,16.4 15.3589723,16.4340426 16.1194701,16.5719149 C17.2019805,16.7608511 18.118346,18.2604255 18.118346,18.9923404 C18.118346,19.3668085 18.118346,19.7821277 17.9539141,20.3880851 C17.6867122,21.3174468 15.8505553,24.6604255 15.0866319,25.9182979 C14.1668406,24.4357447 12.0018199,20.2485106 11.2533119,18.6178723 C10.9278737,17.933617 10.7634417,17.3651064 10.7634417,17.0859574 C10.7634417,16.5719149 11.7911414,16.4 13.517677,16.4 Z M1.24865516,16.4 C2.16673357,16.626383 2.70456309,16.8153191 3.45820955,18.1565957 C6.11138766,22.9957447 8.76799144,28.3302128 11.3526562,33.5778723 C11.6780945,33.8502128 12.0583434,33.9114894 12.6081627,33.9114894 C13.1391409,33.9114894 13.5159641,33.8502128 13.855105,33.5795745 C15.0866319,31.2697872 18.3358758,25.0706383 19.7369731,22.6638298 C21.36759,25.6391489 24.1749231,31.0689362 25.3139569,33.5795745 C25.6291182,33.8519149 26.0196441,33.9114894 26.5523351,33.9114894 C27.0918774,33.9114894 27.4806905,33.8502128 27.7941389,33.5795745 C30.0875167,28.5936319 32.5050682,23.6650222 35.0445604,18.7982979 C35.9112538,17.0859574 36.2863642,16.626383 38.0728489,16.2961702 L38.829921,16.1634043 C39.2615549,15.732766 39.1502208,14.7234043 38.6706276,14.5293617 C37.4802088,14.6229787 36.0756858,14.6706383 34.4981667,14.6706383 C33.1484544,14.6706383 31.8604041,14.6229787 30.0687809,14.5293617 C29.5275258,14.7234043 29.5275258,15.8314894 29.8581025,16.1634043 L30.7693296,16.3387234 C31.6993978,16.5276596 32.1241804,16.7608511 32.1241804,16.9974468 C32.1241804,17.3225532 31.9597484,17.972766 31.6240332,18.7982979 C30.7693296,20.9480851 29.9214773,23.227234 28.6077345,25.9182979 C27.4224542,23.6817021 25.9117356,20.6689362 24.9319952,18.4357447 C24.6134083,17.6510638 24.503787,17.3634043 24.503787,16.9974468 C24.503787,16.7608511 25.2522949,16.5276596 26.5043758,16.2961702 L27.3094072,16.1634043 C27.6999331,15.9744681 27.7410411,14.5855319 27.1484009,14.5293617 C23.9588296,14.6228962 20.7680506,14.6699935 17.5770909,14.6706383 L6.65435568,14.6706383 C4.3831393,14.6706383 2.65660377,14.6229787 0.440198046,14.5293617 C-0.113046969,14.7625532 -0.113046969,15.7838298 0.262063428,16.1634043 L1.24865516,16.4 Z" id="Shape" fill-rule="nonzero"></path>
            <path d="M46.4194835,16.1021277 C48.2505018,16.1021277 49.2850529,17.1148936 49.2850529,18.6519149 C49.2850529,19.1182979 49.1771444,19.5880851 48.9082296,19.7208511 C48.3035996,20.0476596 47.4403319,20.1344681 46.6849726,20.1344681 L44.6878094,20.1344681 C42.9475713,20.1344681 42.2007761,20.1004255 42.2007761,19.4417021 C42.2007761,17.9506383 44.1482671,16.1004255 46.4211963,16.1004255 L46.4194835,16.1021277 Z M46.36296,33.8485106 C49.6053526,33.8485106 53.61852,32.4987234 55.8297872,28.5514894 C55.8297872,27.76 55.0093403,27.3855319 54.4218386,27.4723404 C52.9607922,29.6187234 50.8985414,29.8893617 49.3895357,29.8893617 C44.364084,29.8893617 41.7605781,26.5038298 41.7605781,23.0195745 C41.7605781,22.2774468 41.8736251,22.1855319 43.1205674,22.1855319 L53.4917704,22.1855319 C55.1806236,22.1855319 55.4443998,21.5353191 55.4443998,20.653617 C55.4443998,17.0706383 52.4126857,13.9591489 46.7877425,13.9591489 C40.0391811,13.9591489 35.1164994,18.5157447 35.1164994,24.372766 C35.1164994,29.4365957 39.0645792,33.8485106 46.36296,33.8485106 Z M69.2583969,16.4 C70.2467015,16.4 71.1048307,16.4340426 71.8653285,16.5719149 C72.9478389,16.7608511 73.8659173,18.2604255 73.8659173,18.9923404 C73.8659173,19.3668085 73.8659173,19.7821277 73.704911,20.3880851 C73.4274321,21.3174468 71.5929881,24.6604255 70.8393416,25.9182979 C69.9092734,24.4357447 67.7562425,20.2485106 66.9991703,18.6178723 C66.6805834,17.933617 66.511013,17.3651064 66.511013,17.0859574 C66.511013,16.5719149 67.5318614,16.4 69.2583969,16.4 Z M56.9910879,16.4 C57.9177305,16.626383 58.4504215,16.8153191 59.2074936,18.1565957 C61.8521076,22.9957447 64.5155627,28.3302128 67.1036532,33.5778723 C67.4325171,33.8502128 67.8093403,33.9114894 68.3505955,33.9114894 C68.8867122,33.9114894 69.2583969,33.8502128 69.5906865,33.5795745 C70.8410545,31.2697872 74.0783086,25.0706383 75.48797,22.6638298 C77.1151612,25.6391489 79.9139301,31.0689362 81.052964,33.5795745 C81.3784022,33.8519149 81.7552255,33.9114894 82.293055,33.9114894 C82.8394487,33.9114894 83.2196976,33.8502128 83.5399973,33.5795745 C85.8360915,28.5943432 88.2547665,23.6657718 90.7938445,18.7982979 C91.6588251,17.0859574 92.0322227,16.626383 93.8152817,16.2961702 L94.5792051,16.1634043 C95.0057005,15.732766 94.8926536,14.7234043 94.4130604,14.5293617 C93.217503,14.6229787 91.8198314,14.6706383 90.2440252,14.6706383 C88.7665444,14.6636238 87.2895319,14.616514 85.8146394,14.5293617 C85.2665329,14.7234043 85.2665329,15.8314894 85.5988224,16.1634043 L86.5169008,16.3387234 C87.4384049,16.5276596 87.8666131,16.7608511 87.8666131,16.9974468 C87.8666131,17.3225532 87.703894,17.972766 87.3853071,18.7982979 C86.5169008,20.9480851 85.6502074,23.227234 84.3484544,25.9182979 C83.1631741,23.6817021 81.6524555,20.6689362 80.6795664,18.4357447 C80.3507025,17.6510638 80.2427941,17.3634043 80.2427941,16.9974468 C80.2427941,16.7608511 80.9947277,16.5276596 82.2468085,16.2961702 L83.05184,16.1634043 C83.4320889,15.9744681 83.4886123,14.5855319 82.8908337,14.5293617 C79.4343369,14.6229787 76.7212097,14.6706383 73.3195236,14.6706383 L62.3950756,14.6706383 C60.3228736,14.6709088 58.2509395,14.6238042 56.180918,14.5293617 C55.6448013,14.7625532 55.6448013,15.7838298 56.0216245,16.1634043 L56.9910879,16.4 Z" id="Shape" fill-rule="nonzero"></path>
            <path d="M103.287247,16.1021277 C106.358357,16.1021277 107.874214,19.9965957 107.934163,24.5106383 C107.980409,28.6944681 106.947571,31.7123404 103.862759,31.7123404 C100.740265,31.7123404 98.9469289,28.1276596 98.9469289,23.2561702 C98.9469289,18.1974468 100.904697,16.1004255 103.287247,16.1004255 L103.287247,16.1021277 Z M103.287247,33.8485106 C109.929613,33.8485106 115.720701,30.6451064 115.720701,23.8519149 C115.720701,17.3021277 109.979285,13.9591489 103.604122,13.9591489 C97.2203934,13.9591489 91.1090058,17.627234 91.1603907,24.2774468 C91.2237656,30.6842553 96.8401445,33.8485106 103.287247,33.8485106 Z" id="Shape" fill-rule="nonzero"></path>
            <path d="M124.934029,17.8961702 C125.268032,17.8961702 125.747625,17.947234 126.986003,18.8255319 C127.6797,19.387234 128.330577,19.666383 129.092787,19.666383 C130.819323,19.666383 132.557848,18.7846809 132.557848,16.6451064 C132.557848,14.8902128 131.043704,13.9046809 129.572381,13.9046809 C127.309728,13.9046809 125.747625,15.4365957 124.278014,16.2229787 C123.849806,16.1378723 123.736759,15.9965957 123.736759,15.6680851 C123.736759,15.252766 123.848093,14.6076596 123.947437,13.6697872 C123.736759,13.3940426 123.404469,13.2459574 122.988251,13.2459574 C121.304536,14.1889362 117.575699,15.4365957 115.080102,16.0476596 C114.703278,16.32 114.703278,17.1574468 115.080102,17.4382979 L115.850876,17.8570213 C116.873438,18.4153191 116.873438,18.9702128 116.873438,20.8323404 L116.873438,27.8451064 C116.873438,31.0961702 116.655908,31.5131915 114.869423,31.6595745 L113.840011,31.7446809 C113.404951,32.0238298 113.404951,33.0995745 113.896534,33.3787234 C116.022826,33.2757802 118.151463,33.2281043 120.280262,33.2357447 C122.815255,33.2357447 124.983701,33.2765957 127.582069,33.3770213 C128.068513,33.0995745 128.068513,32.0238298 127.631741,31.7446809 L125.90178,31.6153191 C124.117008,31.467234 123.897765,31.0944681 123.897765,27.8451064 L123.897765,20.6910638 C123.897765,18.9276596 124.171819,17.8961702 124.935742,17.8961702" id="Path"></path>
            <path d="M146.152603,31.5914894 L145.452054,31.7361702 C145.013569,32.1531915 145.119764,33.1234043 145.662733,33.3531915 C147.176877,33.2612766 149.117516,33.2170213 152.322227,33.2170213 C155.456711,33.2170213 157.453874,33.2612766 159.125599,33.3531915 C159.668567,33.1744681 159.779901,32.0578723 159.339703,31.7361702 L158.536384,31.5897872 C157.133574,31.36 156.107587,31.12 155.350515,30.5259574 C153.990526,29.4587234 149.230563,23.1353191 148.271377,21.6493617 C147.992185,21.2782979 147.877425,21.0025532 147.877425,20.8578723 C147.877425,20.7217021 147.933949,20.5378723 148.199438,20.2519149 C148.959936,19.6102128 149.785521,18.9004255 151.832356,17.5540426 C153.286552,16.587234 154.432437,16.1242553 155.458424,15.933617 L157.181534,15.6068085 C157.568634,15.2442553 157.515536,14.2059574 156.962291,13.9812766 C153.779847,14.4034043 149.2888,14.6314894 146.74353,14.6314894 L145.452054,14.6314894 C144.912512,14.8255319 144.852563,15.84 145.339007,16.2570213 L146.695571,16.4510638 C147.176877,16.4885106 147.716419,16.6723404 147.716419,16.9106383 C147.716419,17.1897872 147.456069,17.6970213 146.421517,18.7591489 L144.157152,21.0502128 C143.071216,22.1140426 141.935608,22.347234 141.015817,22.347234 C140.428315,22.347234 140.253606,22.2076596 140.253606,21.6953191 L140.253606,7.10978723 C140.253606,4.1787234 140.32212,2.22468085 140.428315,0.323404255 C140.215924,0.085106383 139.825398,1.77635684e-14 139.503386,1.77635684e-14 C136.738873,1.01276596 133.448521,2.13957447 131.233828,2.59234043 C130.850154,2.87829787 130.850154,3.71744681 131.233828,3.9812766 L132.151907,4.45787234 C133.229279,5.01787234 133.229279,5.52680851 133.229279,7.39574468 L133.229279,27.8280851 C133.229279,31.0791489 133.011749,31.4519149 131.057407,31.6442553 L130.029707,31.7361702 C129.603212,32.0085106 129.603212,33.0808511 130.084518,33.3531915 C132.28354,33.2558086 134.484581,33.2104057 136.685775,33.2170213 C139.176234,33.2170213 141.444025,33.2612766 143.182551,33.3531915 C143.662144,33.0808511 143.662144,32.0085106 143.233936,31.7361702 L142.374093,31.6442553 C140.472849,31.4519149 140.253606,31.0774468 140.253606,27.8280851 L140.253606,25.1387234 C140.253606,24.2485106 140.52766,24.0221277 140.901057,24.0221277 C141.444025,24.0221277 141.879085,24.2093617 142.264472,24.706383 L146.097792,29.7361702 C146.531139,30.2876596 147.014158,31.0297872 147.014158,31.2306383 C147.014158,31.4025532 146.695571,31.4893617 146.152603,31.5897872" id="Path"></path>
        </g>
    </g>
</svg>

<svg width="160" height="72" viewBox="0 0 160 72" xmlns="http://www.w3.org/2000/svg"><title>customer/wework</title><g transform="translate(0 19)" fill="#7B7194" fill-rule="evenodd"><path d="M13.518 16.4c.983 0 1.841.034 2.601.172 1.083.189 2 1.688 2 2.42 0 .375 0 .79-.165 1.396-.267.93-2.103 4.272-2.867 5.53-.92-1.482-3.085-5.67-3.834-7.3-.325-.684-.49-1.253-.49-1.532 0-.514 1.028-.686 2.755-.686zm-12.27 0c.919.226 1.457.415 2.21 1.757 2.653 4.839 5.31 10.173 7.895 15.42.325.273.705.334 1.255.334.531 0 .908-.06 1.247-.331 1.232-2.31 4.48-8.51 5.882-10.916 1.63 2.975 4.438 8.405 5.577 10.916.315.272.706.331 1.238.331.54 0 .929-.06 1.242-.331a330.446 330.446 0 0 1 7.25-14.782c.867-1.712 1.242-2.172 3.029-2.502l.757-.133c.432-.43.32-1.44-.16-1.634a54.23 54.23 0 0 1-4.172.142c-1.35 0-2.638-.048-4.43-.142-.54.194-.54 1.302-.21 1.634l.911.176c.93.189 1.355.422 1.355.658 0 .326-.164.976-.5 1.801-.855 2.15-1.703 4.43-3.016 7.12-1.186-2.236-2.696-5.25-3.676-7.482-.319-.785-.428-1.073-.428-1.439 0-.236.748-.47 2-.7l.805-.134c.39-.189.432-1.577-.16-1.634-3.19.094-6.38.141-9.572.142H6.654c-2.27 0-3.997-.048-6.214-.142-.553.234-.553 1.255-.178 1.634l.987.237z" fill-rule="nonzero"/><path d="M46.42 16.102c1.83 0 2.865 1.013 2.865 2.55 0 .466-.108.936-.377 1.069-.604.327-1.468.413-2.223.413h-1.997c-1.74 0-2.487-.034-2.487-.692 0-1.491 1.947-3.342 4.22-3.342l-.002.002zm-.057 17.747c3.242 0 7.256-1.35 9.467-5.298 0-.791-.82-1.165-1.408-1.079-1.461 2.147-3.523 2.417-5.032 2.417-5.026 0-7.63-3.385-7.63-6.87 0-.742.114-.833 1.36-.833h10.372c1.689 0 1.952-.65 1.952-1.532 0-3.583-3.031-6.695-8.656-6.695-6.749 0-11.672 4.557-11.672 10.414 0 5.064 3.949 9.476 11.247 9.476zM69.258 16.4c.989 0 1.847.034 2.607.172 1.083.189 2 1.688 2 2.42 0 .375 0 .79-.16 1.396-.278.93-2.112 4.272-2.866 5.53-.93-1.482-3.083-5.67-3.84-7.3-.318-.684-.488-1.253-.488-1.532 0-.514 1.02-.686 2.747-.686zm-12.267 0c.927.226 1.46.415 2.216 1.757 2.645 4.839 5.309 10.173 7.897 15.42.329.273.705.334 1.247.334.536 0 .907-.06 1.24-.331 1.25-2.31 4.487-8.51 5.897-10.916 1.627 2.975 4.426 8.405 5.565 10.916.325.272.702.331 1.24.331.546 0 .927-.06 1.247-.331a334.733 334.733 0 0 1 7.254-14.782c.865-1.712 1.238-2.172 3.021-2.502l.764-.133c.427-.43.314-1.44-.166-1.634a54.263 54.263 0 0 1-4.169.142 81.663 81.663 0 0 1-4.43-.142c-.547.194-.547 1.302-.215 1.634l.918.176c.921.189 1.35.422 1.35.658 0 .326-.163.976-.482 1.801-.868 2.15-1.735 4.43-3.037 7.12-1.185-2.236-2.696-5.25-3.668-7.482-.33-.785-.437-1.073-.437-1.439 0-.236.752-.47 2.004-.7l.805-.134c.38-.189.437-1.577-.161-1.634-3.457.094-6.17.142-9.571.142H62.395c-2.072 0-4.144-.047-6.214-.142-.536.234-.536 1.255-.16 1.634l.97.237z" fill-rule="nonzero"/><path d="M103.287 16.102c3.071 0 4.587 3.895 4.647 8.409.046 4.183-.986 7.201-4.071 7.201-3.123 0-4.916-3.584-4.916-8.456 0-5.059 1.958-7.156 4.34-7.156v.002zm0 17.747c6.643 0 12.434-3.204 12.434-9.997 0-6.55-5.742-9.893-12.117-9.893-6.384 0-12.495 3.668-12.444 10.318.064 6.407 5.68 9.572 12.127 9.572z" fill-rule="nonzero"/><path d="M124.934 17.896c.334 0 .814.051 2.052.93.694.561 1.345.84 2.107.84 1.726 0 3.465-.881 3.465-3.02 0-1.756-1.514-2.741-2.986-2.741-2.262 0-3.824 1.532-5.294 2.318-.428-.085-.541-.226-.541-.555 0-.415.111-1.06.21-1.998-.21-.276-.543-.424-.959-.424-1.683.943-5.412 2.19-7.908 2.802-.377.272-.377 1.11 0 1.39l.77.419c1.023.558 1.023 1.113 1.023 2.975v7.013c0 3.251-.217 3.668-2.004 3.815l-1.029.085c-.435.279-.435 1.355.057 1.634a122.89 122.89 0 0 1 6.383-.143c2.535 0 4.704.04 7.302.141.487-.277.487-1.353.05-1.632l-1.73-.13c-1.785-.148-2.004-.52-2.004-3.77v-7.154c0-1.763.274-2.795 1.038-2.795"/><path d="M146.153 31.591l-.7.145c-.44.417-.333 1.387.21 1.617 1.514-.092 3.455-.136 6.66-.136 3.134 0 5.13.044 6.803.136.543-.179.654-1.295.214-1.617l-.804-.146c-1.402-.23-2.428-.47-3.185-1.064-1.36-1.067-6.12-7.39-7.08-8.877-.279-.37-.394-.646-.394-.791 0-.136.057-.32.322-.606.76-.642 1.587-1.352 3.633-2.698 1.455-.967 2.6-1.43 3.626-1.62l1.724-.327c.387-.363.334-1.401-.22-1.626-3.182.422-7.673.65-10.218.65h-1.292c-.54.195-.6 1.209-.113 1.626l1.357.194c.48.038 1.02.221 1.02.46 0 .279-.26.786-1.294 1.848l-2.265 2.291c-1.086 1.064-2.221 1.297-3.141 1.297-.588 0-.762-.14-.762-.652V7.11c0-2.931.068-4.885.174-6.787-.212-.238-.603-.323-.925-.323-2.764 1.013-6.054 2.14-8.27 2.592-.383.286-.383 1.125 0 1.39l.919.476c1.077.56 1.077 1.069 1.077 2.938v20.432c0 3.251-.217 3.624-2.172 3.816l-1.027.092c-.427.273-.427 1.345.055 1.617 2.199-.097 4.4-.143 6.6-.136 2.491 0 4.759.044 6.498.136.48-.272.48-1.344.05-1.617l-.859-.092c-1.901-.192-2.12-.567-2.12-3.816v-2.69c0-.89.274-1.116.647-1.116.543 0 .978.187 1.363.684l3.834 5.03c.433.552.916 1.294.916 1.495 0 .172-.318.258-.861.359"/></g></svg>
